Numix/22x22/categories/applications-monodevelopment.svg

<?xml version="1.0" encoding="UTF-8" standalone="no"?>
<svg
   xmlns:dc="http://purl.org/dc/elements/1.1/"
   xmlns:cc="http://creativecommons.org/ns#"
   xmlns:rdf="http://www.w3.org/1999/02/22-rdf-syntax-ns#"
   xmlns:svg="http://www.w3.org/2000/svg"
   xmlns="http://www.w3.org/2000/svg"
   xmlns:sodipodi="http://sodipodi.sourceforge.net/DTD/sodipodi-0.dtd"
   xmlns:inkscape="http://www.inkscape.org/namespaces/inkscape"
   width="22"
   height="22"
   viewBox="0 0 22 22"
   id="svg2"
   version="1.1"
   inkscape:version="0.91 r"
   sodipodi:docname="applications-monodevelopment.svg">
  <metadata
     id="metadata16">
    <rdf:RDF>
      <cc:Work
         rdf:about="">
        <dc:format>image/svg+xml</dc:format>
        <dc:type
           rdf:resource="http://purl.org/dc/dcmitype/StillImage" />
      </cc:Work>
    </rdf:RDF>
  </metadata>
  <defs
     id="defs14" />
  <sodipodi:namedview
     pagecolor="#ffffff"
     bordercolor="#666666"
     borderopacity="1"
     objecttolerance="10"
     gridtolerance="10"
     guidetolerance="10"
     inkscape:pageopacity="0"
     inkscape:pageshadow="2"
     inkscape:window-width="1680"
     inkscape:window-height="1026"
     id="namedview12"
     showgrid="false"
     inkscape:zoom="10.727273"
     inkscape:cx="-15.055085"
     inkscape:cy="11"
     inkscape:window-x="0"
     inkscape:window-y="24"
     inkscape:window-maximized="1"
     inkscape:current-layer="svg2" />
  <path
     style="fill:none;stroke:#6996af;stroke-width:0.68032002"
     d="M 16.925636,4.0540261 C 15.859277,4.4915068 12.437553,5.9211313 12.351619,5.956286 11.39463,5.1750705 10.152497,4.5657223 8.8595855,4.499319 5.7308172,4.300109 2.855944,7.0812364 2.8481319,10.163132 c -0.1406188,2.773315 1.1249504,5.339608 2.2694311,7.792625 0.956989,-0.39842 4.4373044,-1.851481 4.5271441,-1.886636 0.9374589,0.785122 2.1405309,1.363222 3.3982879,1.453061 3.077989,0.261708 5.937238,-2.402237 6.093481,-5.409917 0.226553,-2.8123765 -1.074171,-5.4177304 -2.163967,-7.9371505 -0.01562,-0.039061 -0.03125,-0.078122 -0.04687,-0.1210884 z"
     id="path4"
     inkscape:connector-curvature="0" />
  <g
     style="fill:#6996af"
     id="g6"
     transform="translate(0.11387743,0.12060579)">
    <path
       d="M 5.714844,16.039062 C 5.039062,14.402344 4.144531,12.964844 4.125,10.292969 4.105469,7.53125 6.472656,5.746094 8.339844,5.746094 c 2.265625,0 4.261718,1.914062 4.363281,3.496094 0.09766,1.429687 -0.414063,3.507812 -3.039063,3.492187 -1.253906,-0.0039 -2.554687,-1.09375 -2.5625,-2.71875 -0.00781,-1.75 2.1875,-1.921875 2.738282,-1.476563 0.214844,0.171876 0.207031,0.519532 0.019531,0.457032 -1.183594,-0.386719 -1.914063,0.371094 -1.855469,1.125 0.070313,1.023437 0.679688,1.632812 1.765625,1.683594 1.570313,0.07422 2.011719,-1.453126 1.972657,-2.070313 C 11.691406,8.980469 11.03125,7.429688 8.992188,7.148438 8.023438,7.015625 7.226562,7.300781 6.640625,7.867188 6.058594,8.433594 5.730469,9.019531 5.683594,9.980469 5.632812,10.976562 5.851562,11.558594 6.441406,12.863281 6.65625,13.328125 7.25,14.265625 7.707031,15.207031 Z"
       id="path8"
       inkscape:connector-curvature="0" />
    <path
       d="m 16.054688,5.746094 c 0.675781,1.636718 1.570312,3.078125 1.589843,5.746094 0.02344,2.761718 -2.347656,4.546874 -4.214843,4.546874 -2.265626,0 -4.257813,-1.910156 -4.363282,-3.496093 -0.09375,-1.429688 0.414063,-3.507813 3.039063,-3.492188 1.253906,0.00781 2.558593,1.097657 2.5625,2.722657 0.0078,1.75 -2.183594,1.917968 -2.738281,1.472656 -0.214844,-0.171875 -0.207032,-0.515625 -0.01563,-0.453125 1.179688,0.382812 1.910157,-0.375 1.855469,-1.125 C 13.695312,10.640625 13.085938,10.03125 12,9.980469 10.429688,9.90625 9.992188,11.433594 10.03125,12.054688 c 0.04687,0.75 0.707031,2.300781 2.746094,2.582031 0.96875,0.136719 1.765625,-0.152344 2.351562,-0.71875 0.582032,-0.566407 0.910156,-1.152344 0.960938,-2.113281 C 16.136719,10.8125 15.921875,10.230469 15.328125,8.925781 15.113281,8.460938 14.523438,7.523438 14.0625,6.578125 Z"
       id="path10"
       inkscape:connector-curvature="0" />
  </g>
</svg>

<svg width="22" xmlns="http://www.w3.org/2000/svg" height="22" viewBox="0 0 22 22" xmlns:xlink="http://www.w3.org/1999/xlink">
<path style="fill:none;stroke:#6996af;stroke-width:8" d="M 197.692364 46.253766 C 185.152862 51.398177 144.91622 68.209378 143.90571 68.622768 C 132.652311 59.43632 118.045859 52.27089 102.842287 51.490042 C 66.050562 49.147498 32.244433 81.851253 32.152569 118.091791 C 30.499008 150.703682 45.381054 180.881164 58.8392 209.726611 C 70.092599 205.041523 111.018226 187.954729 112.074667 187.541339 C 123.098405 196.773719 137.245535 203.571691 152.035717 204.628133 C 188.230323 207.705593 221.852723 176.379805 223.690012 141.011979 C 226.354082 107.940766 211.058646 77.303961 198.243551 47.677666 C 198.059822 47.218343 197.876093 46.759021 197.692364 46.253766 Z " transform="scale(.08504)"/>
<g style="fill:#6996af">
<path d="M 5.714844 16.039062 C 5.039062 14.402344 4.144531 12.964844 4.125 10.292969 C 4.105469 7.53125 6.472656 5.746094 8.339844 5.746094 C 10.605469 5.746094 12.601562 7.660156 12.703125 9.242188 C 12.800781 10.671875 12.289062 12.75 9.664062 12.734375 C 8.410156 12.730469 7.109375 11.640625 7.101562 10.015625 C 7.09375 8.265625 9.289062 8.09375 9.839844 8.539062 C 10.054688 8.710938 10.046875 9.058594 9.859375 8.996094 C 8.675781 8.609375 7.945312 9.367188 8.003906 10.121094 C 8.074219 11.144531 8.683594 11.753906 9.769531 11.804688 C 11.339844 11.878906 11.78125 10.351562 11.742188 9.734375 C 11.691406 8.980469 11.03125 7.429688 8.992188 7.148438 C 8.023438 7.015625 7.226562 7.300781 6.640625 7.867188 C 6.058594 8.433594 5.730469 9.019531 5.683594 9.980469 C 5.632812 10.976562 5.851562 11.558594 6.441406 12.863281 C 6.65625 13.328125 7.25 14.265625 7.707031 15.207031 Z "/>
<path d="M 16.054688 5.746094 C 16.730469 7.382812 17.625 8.824219 17.644531 11.492188 C 17.667969 14.253906 15.296875 16.039062 13.429688 16.039062 C 11.164062 16.039062 9.171875 14.128906 9.066406 12.542969 C 8.972656 11.113281 9.480469 9.035156 12.105469 9.050781 C 13.359375 9.058594 14.664062 10.148438 14.667969 11.773438 C 14.675781 13.523438 12.484375 13.691406 11.929688 13.246094 C 11.714844 13.074219 11.722656 12.730469 11.914062 12.792969 C 13.09375 13.175781 13.824219 12.417969 13.769531 11.667969 C 13.695312 10.640625 13.085938 10.03125 12 9.980469 C 10.429688 9.90625 9.992188 11.433594 10.03125 12.054688 C 10.078125 12.804688 10.738281 14.355469 12.777344 14.636719 C 13.746094 14.773438 14.542969 14.484375 15.128906 13.917969 C 15.710938 13.351562 16.039062 12.765625 16.089844 11.804688 C 16.136719 10.8125 15.921875 10.230469 15.328125 8.925781 C 15.113281 8.460938 14.523438 7.523438 14.0625 6.578125 Z "/>
</g>
</svg>
